X:1
T:So che fedel m'adora
T:So che fedel m'adora
T:Act 2, La Cecchina, ossia la Buona Figliuola
T:Niccolo Piccinni
C:Niccolo Piccinni
L:1/8
M:4/4
K:A
V:1 treble nm="Violin" snm="Vln."
V:1
!f! A2 (c/A/)(e/c/) f3 (a/f/) | (fe) (a/e/)(c/e/) A2!p! (Bc) | d3 (f/d/) (dc)!f! ([Aa]2 | %3
 [Aa]2)!p! (g/f/).e/.d/ (dc) (e/d/)(c/B/) | %4
!f! A(c/A/) (e/c/)(a/e/) (3(e/4d/4c/4d/).g/.a/ .b/.g/.e/.d/ | %5
 c(c/A/) (e/c/)(a/e/) (3(e/4d/4c/4d/).g/.a/ .b/.g/.e/.d/ | %6
 (3(d/4c/4B/4c/)(e/<c/) (3(e/4d/4c/4d/)(b/<d/) (3(d/4c/4B/4c/)(e/<c/) (3(e/4d/4c/4d/)(b/<d/) | %7
 (c/A/)(e/c/)!f! ([Aa]2 [Aa])(g/4f/4e/4f/4) .e/.d/.c/.B/ | %8
!p! (3(d/4c/4B/4c/)(e/<c/) (3(e/4d/4c/4d/)(b/<d/) (3(d/4c/4B/4c/)(e/<c/) (3(e/4d/4c/4d/)(b/<d/) | %9
 (c/A/)(e/c/)!f! ([Aa]2 [Aa])(g/4f/4e/4f/4) .e/.d/.c/.B/ | A(c/e/) (c/A/)(E/C/) AE A,2 || %11
!p! A2 (c/A/)(e/c/) ffff | (fe)!f! (a/e/)(c/e/)!p! A2 (Bc) | d3 (f/d/) (dc)!f! (a2 | %14
 a2)!p! (g/f/)e/d/ (dc) (e/d/)c/B/ |!f! A(c/e/) (c/A/)(E/C/) AE A,2 |!p! A2 (c/A/)(e/c/) a a2 c | %17
 (cB) (e2 e)(^d/>e/) fA | (AG)!f! g/>a/a!p! bbbb | z eee a z a z | z fgf g z g z | z efe f z f z | %22
 eeee ^dddd | eeee ^dddd | eB (e2 e) z e z | ^d2 z B (cB)(ed) | (fe)(gf)!f! (a2 a) !fermata!z | %27
!p! ee/e/ (f=g) (B^A) z2 | ^dd/d/ (ef) (AG)!f! (e2 | ec/>)a/ (g/f/)(e/^d/) e2 z2 | %30
!p! ee/e/ (f=g) (B^A) z2 | ^dd/d/ (ef) (AG)!f! (e2 | ec/>)a/ (g/f/)(e/^d/)!f! b2 (a/g/)(f/e/) | %33
 (^d/c/)(f/a/) (g/f/)(e/d/)!p! (3(a/4g/4f/4g/)(b/<g/) (3(b/4a/4g/4a/)(f/<a/) | %34
 (3(a/4g/4f/4g/)(b/<g/) (3(b/4a/4g/4a/)(f/<a/)!f! (g/e/)(b/g/) (b/g/)(f/e/) | %35
 (^d/c/)(f/a/) (g/f/)(e/d/) eB e2 |!p! BBBB cccc | (cB) (e/B/)(G/B/) E2 (FG) | A3 (c/A/) (AG)BB | %39
 B2 (cd) (d3/2e/4f/4) (ed) | (c/A/)E/C/ A,2 A2 (c/A/)(e/c/) | ffff (fe)ee | f f2 (g/a/) e!f! d2 c | %43
 (cB) (e/g/)(b/g/) eeee |!pp! dddd .d/.B/.c/.d/ .e/.f/.g/.a/ | bddd c z c z | %46
 .c/.A/.B/.c/ .d/.e/.f/.g/ aaac | dddd .d/.B/.c/.d/ .e/.f/.g/.a/ | bbbd c2 z d | %49
 c2 z d .c/.e/.d/.c/ .d/.e/.f/.g/ |!f! a2 f2!p! (Te3/2d/4e/4) .f.d | %51
 (Tc3/2B/4c/4) dB A(c/A/) (e/c/)(a/e/) | (3(e/4d/4c/4d/).g/.a/ .b/.g/.e/.d/ c(c/A/) (e/c/)(a/e/) | %53
 (3(e/4d/4c/4d/).g/.a/ .b/.g/.e/.d/ (c/A/)(e/c/)!f! (a2 | a2) .e/.d/.c/.B/ A(c/A/) (e/c/)(a/e/) | %55
 (3(e/4d/4c/4d/).g/.a/ .b/.g/.e/.d/ c(c/A/) (e/c/)(a/e/) | %56
 (3(e/4d/4c/4d/).g/.a/ .b/.g/.e/.d/ (3(d/4c/4B/4c/)(e/<c/) (3(e/4d/4c/4d/)(b/<d/) | %57
 (3(d/4c/4B/4c/)(e/<c/) (3(e/4d/4c/4d/)(b/<d/) (c/A/)(e/c/)!f! (a2 | %58
 a)(g/4f/4e/4f/4) .e/.d/.c/.B/ (c/A/)(e/c/)!f! (a2 | %59
 a)(g/4f/4e/4f/4) .e/.d/.c/.B/!f! A.c/.A/ .e/.c/.a/.e/ | %60
 (3(e/4d/4c/4d/).g/.a/ .b/.g/.e/.d/ c(c/A/) (e/c/)(a/e/) | %61
 (3(e/4d/4c/4d/).g/.a/ .b/.g/.e/.d/ (c/A/)(e/c/)!f! (a2 | %62
 a)(g/4f/4e/4f/4) .e/.d/.c/.B/ AE A,2!fine! ||!p! ee/e/ (f=g) (B^A)!f! (f2 | %64
!p! f)(e/d/) (f/e/)d/c/ (d/B/).F/.D/ B,2 | ff/f/ (ga) (c^B)!f! (g2 | %66
!p! g)(f/e/) (g/f/)e/^d/ e2!f! (c2 | c)!p!(c/a/) (g/f/)e/d/ ca/a/ g/g/f/f/ | %68
 ee^dd c2 !fermata!z2!D.C.! || %69

